dist/img/icons/hair.svg

<svg height="496pt" viewBox="0 0 496 496" width="496pt" xmlns="http://www.w3.org/2000/svg"><path d="m457.710938 317.480469-81.710938-27.25v-16.574219c17.679688-11.558594 30.910156-29.304688 36.710938-50.136719 19.816406-2.359375 35.289062-19.078125 35.289062-39.519531v-48.585938c.96875-.398437 1.960938-.695312 2.921875-1.109374l29.292969-12.550782-34.535156-24.675781c-10.824219-55.71875-60.335938-97.078125-117.679688-97.078125-66.167969 0-120 53.832031-120 120v64c0 20.441406 15.472656 37.160156 35.289062 39.519531 5.789063 20.839844 19.03125 38.578125 36.710938 50.136719v16.574219l-81.703125 27.242187c-22.914063 7.632813-38.296875 28.984375-38.296875 53.121094v125.40625h336v-125.40625c0-24.136719-15.382812-45.488281-38.289062-53.113281zm-171.3125-12.511719 29.625 23.695312-23.6875 23.6875-11.390626-45.566406zm83.203124 0 5.453126 1.816406-11.390626 45.566406-23.6875-23.6875zm-85.9375 78.679688 44.335938-44.335938 44.335938 44.335938 17.945312-71.792969 1.71875.578125v87.566406h-128v-87.566406l1.71875-.578125zm124.335938 32.351562v-98.230469l24 8v154.230469h-208v-154.230469l24-8v98.230469zm7.664062-209.367188c.167969-2.199218.335938-4.394531.335938-6.632812v-38.527344c9.289062 3.3125 16 12.113282 16 22.527344 0 10.535156-6.871094 19.414062-16.335938 22.632812zm16.335938-54.425781c-4.160156-3.144531-8.902344-5.480469-14.105469-6.816406 4.738281-1.191406 9.441407-2.527344 14.105469-4.039063zm-104-136.207031c43.296875 0 81.414062 27.214844 96.761719 66.136719l-12.105469-8.648438-9.296875 13.023438 44.433594 31.734375-3.167969 1.363281c-25.394531 10.878906-52.265625 16.390625-79.890625 16.390625-28.558594 0-56.269531-5.878906-82.359375-17.480469l-42.375-18.832031v45.121094c-5.945312 1.214844-11.328125 3.855468-16 7.390625v-32.199219c0-57.34375 46.65625-104 104-104zm-104 168c0-10.414062 6.710938-19.214844 16-22.527344v38.527344c0 2.238281.167969 4.433594.335938 6.632812-9.464844-3.21875-16.335938-12.097656-16.335938-22.632812zm32 16v-75.6875l19.871094 8.832031c28.152344 12.511719 58.050781 18.855469 88.863281 18.855469 11.898437 0 23.671875-.953125 35.265625-2.832031v50.832031c0 39.695312-32.304688 72-72 72s-72-32.304688-72-72zm72 88c11.296875 0 22.0625-2.214844 32-6.113281v10.265625l-32 25.609375-32-25.609375v-10.265625c9.9375 3.898437 20.703125 6.113281 32 6.113281zm-152 82.59375c0-17.242188 10.992188-32.496094 27.351562-37.945312l4.648438-1.550782v148.902344h-32zm304 109.40625h-32v-148.902344l4.65625 1.550782c16.351562 5.457031 27.34375 20.703124 27.34375 37.945312zm0 0"/><path d="m384 168c0 4.417969-3.582031 8-8 8s-8-3.582031-8-8 3.582031-8 8-8 8 3.582031 8 8zm0 0"/><path d="m288 168c0 4.417969-3.582031 8-8 8s-8-3.582031-8-8 3.582031-8 8-8 8 3.582031 8 8zm0 0"/><path d="m360 216h-16c0 8.824219-7.175781 16-16 16s-16-7.175781-16-16h-16c0 17.648438 14.351562 32 32 32s32-14.351562 32-32zm0 0"/><path d="m.015625 168.527344 16.265625 243.9375 23.71875 15.816406v51.71875c0 8.824219 7.175781 16 16 16h32c8.824219 0 16-7.175781 16-16v-51.71875l23.71875-15.816406 16.28125-244.464844v-40h-144zm79.984375-8.527344v-16h16v16zm-16 0h-16v-16h16zm63.449219 16-1.066407 16h-108.78125l-1.066406-16zm-79.449219 32h48v16h-48zm-16 0v16c0 8.824219 7.175781 16 16 16h48c8.824219 0 16-7.175781 16-16v-16h13.320312l-3.199218 48h-100.25l-3.199219-48zm24 272v-48h32v48zm37.574219-64h-43.148438l-18.707031-12.472656-8.773438-131.527344h98.109376l-8.765626 131.527344zm34.441406-256h-16.015625v-16h16zm-96.015625-16v16h-16v-16zm0 0"/><path d="m72 312c-13.230469 0-24 10.769531-24 24v32c0 13.230469 10.769531 24 24 24s24-10.769531 24-24v-32c0-13.230469-10.769531-24-24-24zm8 56c0 4.414062-3.59375 8-8 8s-8-3.585938-8-8v-32c0-4.414062 3.59375-8 8-8s8 3.585938 8 8zm0 0"/></svg>

<svg height="496pt" viewBox="0 0 496 496" width="496pt" xmlns="http://www.w3.org/2000/svg"><path d="M457.71 317.48L376 290.23v-16.574c17.68-11.558 30.91-29.304 36.71-50.136C432.528 221.16 448 204.44 448 184v-48.586c.969-.398 1.96-.695 2.922-1.11l29.293-12.55-34.535-24.676C434.855 41.36 385.344 0 328 0c-66.168 0-120 53.832-120 120v64c0 20.441 15.473 37.16 35.29 39.52 5.788 20.84 19.03 38.578 36.71 50.136v16.574l-81.703 27.243A55.917 55.917 0 0 0 160 370.593V496h336V370.594a55.903 55.903 0 0 0-38.29-53.114zM286.399 304.97l29.625 23.695-23.687 23.688-11.39-45.567zm83.204 0l5.453 1.816-11.39 45.567-23.688-23.688zm-85.938 78.68L328 339.311l44.336 44.336 17.945-71.793 1.719.579V400H264v-87.566l1.719-.579zM408 416v-98.23l24 8V480H224V325.77l24-8V416zm7.664-209.367c.168-2.2.336-4.395.336-6.633v-38.527c9.29 3.312 16 12.113 16 22.527 0 10.535-6.871 19.414-16.336 22.633zM432 152.207a39.678 39.678 0 0 0-14.105-6.816A218.595 218.595 0 0 0 432 141.35zM328 16c43.297 0 81.414 27.215 96.762 66.137l-12.106-8.649-9.297 13.024 44.434 31.734-3.168 1.363C419.23 130.49 392.359 136 364.735 136c-28.56 0-56.27-5.879-82.36-17.48L240 99.688v45.12c-5.945 1.215-11.328 3.856-16 7.391V120c0-57.344 46.656-104 104-104zM224 184c0-10.414 6.71-19.215 16-22.527V200c0 2.238.168 4.434.336 6.633C230.87 203.414 224 194.535 224 184zm32 16v-75.688l19.871 8.833C304.023 145.656 333.921 152 364.734 152c11.899 0 23.672-.953 35.266-2.832V200c0 39.695-32.305 72-72 72s-72-32.305-72-72zm72 88c11.297 0 22.063-2.215 32-6.113v10.265l-32 25.61-32-25.61v-10.265c9.938 3.898 20.703 6.113 32 6.113zm-152 82.594a39.945 39.945 0 0 1 27.352-37.946l4.648-1.55V480h-32zM480 480h-32V331.098l4.656 1.55A39.956 39.956 0 0 1 480 370.594zm0 0"/><path d="M384 168a8 8 0 1 1-16 0 8 8 0 0 1 16 0zm0 0M288 168a8 8 0 1 1-16 0 8 8 0 0 1 16 0zm0 0M360 216h-16c0 8.824-7.176 16-16 16s-16-7.176-16-16h-16c0 17.648 14.352 32 32 32s32-14.352 32-32zm0 0M.016 168.527L16.28 412.465 40 428.28V480c0 8.824 7.176 16 16 16h32c8.824 0 16-7.176 16-16v-51.719l23.719-15.816L144 168v-40H0zM80 160v-16h16v16zm-16 0H48v-16h16zm63.45 16l-1.067 16H17.602l-1.067-16zM48 208h48v16H48zm-16 0v16c0 8.824 7.176 16 16 16h48c8.824 0 16-7.176 16-16v-16h13.32l-3.199 48H21.871l-3.2-48zm24 272v-48h32v48zm37.574-64H50.426l-18.707-12.473L22.945 272h98.11l-8.766 131.527zm34.442-256H112v-16h16zM32 144v16H16v-16zm0 0"/><path d="M72 312c-13.23 0-24 10.77-24 24v32c0 13.23 10.77 24 24 24s24-10.77 24-24v-32c0-13.23-10.77-24-24-24zm8 56c0 4.414-3.594 8-8 8s-8-3.586-8-8v-32c0-4.414 3.594-8 8-8s8 3.586 8 8zm0 0"/></svg>
